X:1
T:Christmas Carol (Crosby)
T:Christmas Carol (Crosby)
T:William Howard Doane
T:Frances Jane (Fanny) Crosby, 1873
T:Public Domain Courtesy of the Cyber Hymnal™
C:William Howard Doane
Z:Public Domain
Z:Courtesy of the Cyber Hymnal™
%%score 1 ( 2 3 )
L:1/8
Q:1/4=105
M:4/4
K:Ab
V:1 treble 
V:2 bass 
V:3 bass 
V:1
 [Ec]2 [Ec]2 [DB]2 [DB]2 | [CA]2 [EG]>[DF] [CE]4 | [DF]2 [FA]2 [FA]2 [EG]>[DF] | %3
w: 1.~Hal- le- lu- jah!|hark! from a- bove|An- gels come on their|
w: 2.~Chim- ing, chim- ing,|hark! ’tis the bells;|Joy to all now their|
w: 3.~Hal- le- lu- jah!|joy- ful we sing,|While we praise our ex-|
 [CE]2 [Ec]2 [EB]4 | [Ec]2 [Ec]2 [DB]2 [DB]2 | [CA]2 [EG]>[DF] [CE]4 | %6
w: wings of love;|Loud ho- san- nas|wel- come the morn;|
w: mu- sic tells;|Float- ing on- ward,|greet- ing the morn;|
w: alt- ed king;|Let our ca- rol|wel- come the morn;|
 [DF]2 [EA]>[FB] [Ec]2 [DB]2 | [CA]6 z2 ||"^Refrain" [EB]2 [EB]>[EB] [DB]2 [Ec]2 | %9
w: Christ our Re- deem- er’s|born.||
w: Christ our Re- deem- er’s|born.|“Glo- ry to God” the|
w: Christ our Re- deem- er’s|born.||
 [CA]2 [EA]2 [EA]4 | [Fd]2 [Fd]>[Fd] [Ed]2 [Ee]2 | [Ec]2 [Ec]2 [EB]4 | [Ec]2 [Ec]2 [DB]2 [DB]2 | %13
w: ||||
w: chor- al strain;|“Glo- ry to God” the|sweet re- frain;|“Glo- ry, glo- ry,|
w: ||||
 [CA]2 [EG]>[DF] [CE]4 | [DF]2 [EA]>[FB] [Ec]2 [DB]2 | [CA]6 z2 |] %16
w: |||
w: glo- ry to God!”|Christ our Re- deem- er’s|born.|
w: |||
V:2
 [A,,A,]2 [A,,A,]2 [E,G,]2 [E,G,]2 | [A,,A,]2 [D,A,]>[D,A,] [A,,A,]4 | %2
 [D,A,]2 [D,A,]2 [D,A,]2 [D,A,]>[F,A,] | A,2 [A,,A,]2 [E,G,]4 | [A,,A,]2 [A,,A,]2 [E,G,]2 [E,G,]2 | %5
 [A,,A,]2 [D,A,]>[D,A,] [A,,A,]4 | [D,A,]2 [C,A,]>[D,A,] [E,A,]2 [E,G,]2 | [A,,A,]6 z2 || %8
 [E,G,]2 [E,G,]>[E,G,] [E,G,]2 [E,G,]2 | [A,,A,]2 [A,,C]2 [A,,C]4 | %10
 [D,A,]2 [D,A,]>[D,A,] [E,G,]2 [G,B,]2 | A,2 [C,A,]2 [E,G,]4 | [A,,A,]2 [A,,A,]2 [E,G,]2 [E,G,]2 | %13
 [A,,A,]2 [D,A,]>[D,A,] [A,,A,]4 | [D,A,]2 [C,A,]>[D,A,] [E,A,]2 [E,G,]2 | [A,,A,]6 z2 |] %16
V:3
 x8 | x8 | x8 | A,2 x6 | x8 | x8 | x8 | x8 || x8 | x8 | x8 | A,2 x6 | x8 | x8 | x8 | x8 |] %16

